assets/img/icons/icon_1.svg

<svg width="66" height="66" viewBox="0 0 66 66" fill="none" xmlns="http://www.w3.org/2000/svg">
<path d="M56.3276 57.8654H9.67222C9.23461 57.8654 8.81493 57.6916 8.50549 57.3821C8.19606 57.0727 8.02222 56.653 8.02222 56.2154C8.02222 55.7778 8.19606 55.3581 8.50549 55.0487C8.81493 54.7393 9.23461 54.5654 9.67222 54.5654H56.3276C56.7652 54.5654 57.1849 54.7393 57.4943 55.0487C57.8038 55.3581 57.9776 55.7778 57.9776 56.2154C57.9776 56.653 57.8038 57.0727 57.4943 57.3821C57.1849 57.6916 56.7652 57.8654 56.3276 57.8654Z" fill="white"/>
<path d="M20.516 32.868C18.9371 32.8686 17.3934 32.401 16.0802 31.5243C14.767 30.6475 13.7433 29.401 13.1386 27.9424C12.5339 26.4838 12.3754 24.8787 12.683 23.33C12.9907 21.7813 13.7507 20.3586 14.8669 19.2418C15.9832 18.1251 17.4056 17.3645 18.9542 17.0562C20.5028 16.7479 22.108 16.9058 23.5668 17.5099C25.0257 18.114 26.2726 19.1372 27.1499 20.45C28.0272 21.7628 28.4954 23.3063 28.4954 24.8853C28.4928 27.0011 27.6514 29.0295 26.1556 30.5259C24.6599 32.0222 22.6318 32.8645 20.516 32.868ZM20.516 20.2059C19.5896 20.2052 18.6838 20.4794 17.9132 20.9937C17.1427 21.508 16.5419 22.2393 16.1871 23.0951C15.8323 23.9509 15.7393 24.8927 15.9198 25.8013C16.1004 26.71 16.5465 27.5447 17.2016 28.1998C17.8567 28.8548 18.6913 29.3009 19.6 29.4815C20.5087 29.662 21.4505 29.569 22.3063 29.2142C23.162 28.8594 23.8933 28.2587 24.4076 27.4881C24.9219 26.7175 25.1961 25.8117 25.1954 24.8853C25.1937 23.6448 24.7001 22.4556 23.8229 21.5784C22.9458 20.7012 21.7566 20.2076 20.516 20.2059Z" fill="white"/>
<path d="M9.56992 51.0774C9.13231 51.0774 8.71263 50.9036 8.4032 50.5942C8.09376 50.2847 7.91992 49.865 7.91992 49.4274V40.557C7.91992 36.0822 13.454 32.5776 20.516 32.5776C23.816 32.5776 26.918 33.3531 29.2577 34.7556C29.4436 34.8674 29.6057 35.0148 29.7347 35.1892C29.8637 35.3637 29.957 35.5618 30.0094 35.7723C30.0618 35.9828 30.0722 36.2016 30.0401 36.4162C30.0079 36.6307 29.9338 36.8368 29.822 37.0227C29.7102 37.2087 29.5629 37.3707 29.3884 37.4997C29.214 37.6287 29.0159 37.722 28.8053 37.7744C28.5948 37.8268 28.376 37.8372 28.1615 37.8051C27.9469 37.7729 27.7408 37.6988 27.5549 37.587C25.7498 36.5013 23.1857 35.8776 20.516 35.8776C15.038 35.8776 11.2199 38.3427 11.2199 40.557V49.4274C11.2199 49.865 11.0461 50.2847 10.7366 50.5942C10.4272 50.9036 10.0075 51.0774 9.56992 51.0774Z" fill="white"/>
<path d="M42.1443 27.6276C40.2052 27.6283 38.3094 27.0539 36.6967 25.9772C35.0841 24.9004 33.8269 23.3696 33.0842 21.5783C32.3416 19.7871 32.1468 17.8158 32.5244 15.9139C32.9021 14.0119 33.8353 12.2646 35.206 10.893C36.5767 9.52138 38.3233 8.58702 40.225 8.20808C42.1267 7.82914 44.0981 8.02263 45.8899 8.76409C47.6816 9.50555 49.2133 10.7617 50.2911 12.3736C51.369 13.9856 51.9446 15.8809 51.9453 17.82C51.9435 20.4195 50.9106 22.9121 49.0731 24.7508C47.2356 26.5895 44.7437 27.6242 42.1443 27.6276ZM42.1443 11.3223C40.8574 11.3217 39.5993 11.7028 38.5291 12.4174C37.4589 13.132 36.6247 14.148 36.1321 15.3368C35.6395 16.5256 35.5106 17.8339 35.7617 19.096C36.0129 20.3581 36.6327 21.5173 37.5429 22.427C38.4531 23.3368 39.6127 23.956 40.8749 24.2065C42.1371 24.457 43.4453 24.3275 44.6339 23.8343C45.8225 23.341 46.838 22.5063 47.5521 21.4358C48.2661 20.3652 48.6466 19.1069 48.6453 17.82C48.6418 16.0973 47.9556 14.4461 46.7371 13.2282C45.5186 12.0103 43.8671 11.325 42.1443 11.3223Z" fill="white"/>
<path d="M56.2387 51.0775C55.8011 51.0775 55.3814 50.9037 55.072 50.5942C54.7626 50.2848 54.5887 49.8651 54.5887 49.4275V38.0029C54.5887 34.8646 49.5892 31.5019 42.1444 31.5019C34.6996 31.5019 29.7001 34.8646 29.7001 38.0029V49.4275C29.7001 49.8651 29.5263 50.2848 29.2169 50.5942C28.9074 50.9037 28.4878 51.0775 28.0501 51.0775C27.6125 51.0775 27.1929 50.9037 26.8834 50.5942C26.574 50.2848 26.4001 49.8651 26.4001 49.4275V38.0029C26.4001 32.5084 33.3301 28.2019 42.1444 28.2019C50.9587 28.2019 57.8887 32.5084 57.8887 38.0029V49.4275C57.8887 49.6442 57.8461 49.8588 57.7631 50.0589C57.6802 50.2591 57.5587 50.441 57.4055 50.5942C57.2523 50.7475 57.0704 50.869 56.8702 50.9519C56.67 51.0348 56.4554 51.0775 56.2387 51.0775Z" fill="white"/>
</svg>

<svg width="66" height="66" fill="none" xmlns="http://www.w3.org/2000/svg"><path d="M56.328 57.865H9.672a1.65 1.65 0 110-3.3h46.656a1.65 1.65 0 010 3.3zM20.516 32.868a7.984 7.984 0 117.98-7.983 7.992 7.992 0 01-7.98 7.983zm0-12.662a4.682 4.682 0 10-.007 9.365 4.682 4.682 0 00.007-9.365z" fill="#fff"/><path d="M9.57 51.077a1.65 1.65 0 01-1.65-1.65v-8.87c0-4.475 5.534-7.98 12.596-7.98 3.3 0 6.402.776 8.742 2.179a1.653 1.653 0 01-1.703 2.831c-1.805-1.086-4.37-1.71-7.039-1.71-5.478 0-9.296 2.466-9.296 4.68v8.87a1.65 1.65 0 01-1.65 1.65zm32.574-23.449a9.805 9.805 0 119.801-9.808 9.814 9.814 0 01-9.8 9.808zm0-16.306a6.505 6.505 0 106.501 6.498 6.511 6.511 0 00-6.5-6.498z" fill="#fff"/><path d="M56.239 51.078a1.65 1.65 0 01-1.65-1.65V38.002c0-3.138-5-6.501-12.445-6.501-7.444 0-12.444 3.363-12.444 6.5v11.425a1.65 1.65 0 11-3.3 0V38.004c0-5.495 6.93-9.801 15.744-9.801 8.815 0 15.745 4.306 15.745 9.8v11.425a1.648 1.648 0 01-1.65 1.65z" fill="#fff"/></svg>
